assets/images/cards/amex.svg

<?xml version="1.0" encoding="UTF-8" standalone="no"?>
<svg viewBox="0 0 752 471" version="1.1" xmlns="http://www.w3.org/2000/svg" xmlns:xlink="http://www.w3.org/1999/xlink" xmlns:sketch="http://www.bohemiancoding.com/sketch/ns" preserveAspectRatio="xMidYMid meet">
    <!-- Generator: Sketch 3.3.1 (12005) - http://www.bohemiancoding.com/sketch -->
    <title>Slice 1</title>
    <desc>Created with Sketch.</desc>
    <defs></defs>
    <g id="Page-1" stroke="none" stroke-width="1" fill="none" fill-rule="evenodd" sketch:type="MSPage">
        <g id="amex" sketch:type="MSLayerGroup">
            <rect id="Rectangle-1" fill="#2557D6" sketch:type="MSShapeGroup" x="1" y="0" width="750" height="471" rx="40"></rect>
            <path d="M1.002688,221.18508 L37.026849,221.18508 L45.149579,201.67506 L63.334596,201.67506 L71.436042,221.18508 L142.31637,221.18508 L142.31637,206.26909 L148.64322,221.24866 L185.43894,221.24866 L191.76579,206.04654 L191.76579,221.18508 L367.91701,221.18508 L367.83451,189.15941 L371.2427,189.15941 C373.62924,189.24161 374.3263,189.46144 374.3263,193.38516 L374.3263,221.18508 L465.43232,221.18508 L465.43232,213.72973 C472.78082,217.6508 484.21064,221.18508 499.25086,221.18508 L537.57908,221.18508 L545.78163,201.67506 L563.96664,201.67506 L571.98828,221.18508 L645.84844,221.18508 L645.84844,202.65269 L657.0335,221.18508 L716.22061,221.18508 L716.22061,98.67789 L657.64543,98.67789 L657.64543,113.14614 L649.44288,98.67789 L589.33787,98.67789 L589.33787,113.14614 L581.80579,98.67789 L500.61839,98.67789 C487.02818,98.67789 475.08221,100.5669 465.43232,105.83121 L465.43232,98.67789 L409.40596,98.67789 L409.40596,105.83121 C403.26536,100.40529 394.89786,98.67789 385.59383,98.67789 L180.90796,98.67789 L167.17407,130.3194 L153.07037,98.67789 L88.59937,98.67789 L88.59937,113.14614 L81.516924,98.67789 L26.533518,98.67789 L0.999997,156.92445 L0.999997,221.18508 L1.002597,221.18508 L1.002688,221.18508 Z M228.39922,203.51436 L206.78472,203.51436 L206.70492,134.72064 L176.13228,203.51436 L157.62,203.51436 L126.96754,134.6597 L126.96754,203.51436 L84.084427,203.51436 L75.982981,183.92222 L32.083524,183.92222 L23.8996,203.51436 L1.000047,203.51436 L38.756241,115.67692 L70.08183,115.67692 L105.94103,198.84086 L105.94103,115.67692 L140.35289,115.67692 L167.94569,175.26406 L193.29297,115.67692 L228.39657,115.67692 L228.39657,203.51436 L228.39957,203.51436 L228.39922,203.51436 Z M68.777214,165.69287 L54.346265,130.67606 L39.997794,165.69287 L68.777214,165.69287 L68.777214,165.69287 Z M314.41947,203.51436 L243.98611,203.51436 L243.98611,115.67692 L314.41947,115.67692 L314.41947,133.96821 L265.07116,133.96821 L265.07116,149.8009 L313.23551,149.8009 L313.23551,167.80606 L265.07116,167.80606 L265.07116,185.34759 L314.41947,185.34759 L314.41947,203.51436 L314.41947,203.51436 Z M413.67528,139.33321 C413.67528,153.33782 404.28877,160.57326 398.81863,162.74575 C403.43206,164.49434 407.37237,167.58351 409.24808,170.14281 C412.22525,174.51164 412.73875,178.41416 412.73875,186.25897 L412.73875,203.51436 L391.47278,203.51436 L391.39298,192.43732 C391.39298,187.1518 391.90115,179.55074 388.0646,175.32499 C384.98366,172.23581 380.28774,171.56552 372.69714,171.56552 L350.06363,171.56552 L350.06363,203.51436 L328.98125,203.51436 L328.98125,115.67692 L377.47552,115.67692 C388.25084,115.67692 396.18999,115.9604 403.00639,119.88413 C409.67644,123.80786 413.67529,129.53581 413.67529,139.33321 L413.67528,139.33321 Z M387.02277,152.37632 C384.1254,154.12756 380.69859,154.18584 376.59333,154.18584 L350.97998,154.18584 L350.97998,134.67583 L376.94186,134.67583 C380.61611,134.67583 384.44999,134.8401 386.94029,136.26016 C389.67536,137.53981 391.36749,140.26337 391.36749,144.02548 C391.36749,147.86443 389.75784,150.95361 387.02277,152.37632 L387.02277,152.37632 Z M447.48908,203.51436 L425.97569,203.51436 L425.97569,115.67692 L447.48908,115.67692 L447.48908,203.51436 L447.48908,203.51436 Z M697.22856,203.51436 L667.35032,203.51436 L627.38585,137.58727 L627.38585,203.51436 L584.44687,203.51436 L576.24166,183.92222 L532.44331,183.92222 L524.48287,203.51436 L499.81137,203.51436 C489.56284,203.51436 476.58722,201.25709 469.23872,193.79909 C461.82903,186.3411 457.97386,176.23903 457.97386,160.26593 C457.97386,147.23895 460.27791,135.33 469.33983,125.91941 C476.15621,118.90916 486.83044,115.67692 501.35982,115.67692 L521.77174,115.67692 L521.77174,134.49809 L501.78818,134.49809 C494.0938,134.49809 489.74909,135.63733 485.564,139.70147 C481.96957,143.4 479.50322,150.39171 479.50322,159.59829 C479.50322,169.00887 481.38158,175.79393 485.30061,180.22633 C488.5465,183.70232 494.445,184.75677 499.99495,184.75677 L509.46393,184.75677 L539.17987,115.67957 L570.77152,115.67957 L606.46843,198.76138 L606.46843,115.67957 L638.5709,115.67957 L675.6327,176.85368 L675.6327,115.67957 L697.22856,115.67957 L697.22856,203.51436 L697.22856,203.51436 Z M569.07051,165.69287 L554.47993,130.67606 L539.96916,165.69287 L569.07051,165.69287 L569.07051,165.69287 Z" id="Path" fill="#FFFFFF" sketch:type="MSShapeGroup"></path>
            <path d="M750.95644,343.76716 C745.83485,351.22516 735.85504,355.00582 722.34464,355.00582 L681.62723,355.00582 L681.62723,336.1661 L722.17969,336.1661 C726.20248,336.1661 729.01736,335.63887 730.71215,333.99096 C732.18079,332.63183 733.2051,330.65804 733.2051,328.26036 C733.2051,325.70107 732.18079,323.66899 730.62967,322.45028 C729.09984,321.10969 726.87294,320.50033 723.20135,320.50033 C703.40402,319.83005 678.70592,321.10969 678.70592,293.30714 C678.70592,280.56363 686.83131,267.14983 708.95664,267.14983 L750.95379,267.14983 L750.95379,249.66925 L711.93382,249.66925 C700.15812,249.66925 691.60438,252.47759 685.54626,256.84375 L685.54626,249.66925 L627.83044,249.66925 C618.60091,249.66925 607.76706,251.94771 602.64279,256.84375 L602.64279,249.66925 L499.57751,249.66925 L499.57751,256.84375 C491.37496,250.95154 477.53466,249.66925 471.14663,249.66925 L403.16366,249.66925 L403.16366,256.84375 C396.67452,250.58593 382.24357,249.66925 373.44772,249.66925 L297.3633,249.66925 L279.95252,268.43213 L263.64586,249.66925 L149.99149,249.66925 L149.99149,372.26121 L261.50676,372.26121 L279.447,353.20159 L296.34697,372.26121 L365.08554,372.32211 L365.08554,343.48364 L371.84339,343.48364 C380.96384,343.62405 391.72054,343.25845 401.21079,339.17311 L401.21079,372.25852 L457.90762,372.25852 L457.90762,340.30704 L460.64268,340.30704 C464.13336,340.30704 464.47657,340.45011 464.47657,343.92344 L464.47657,372.25587 L636.71144,372.25587 C647.64639,372.25587 659.07621,369.46873 665.40571,364.41107 L665.40571,372.25587 L720.03792,372.25587 C731.40656,372.25587 742.50913,370.66889 750.95644,366.60475 L750.95644,343.76712 L750.95644,343.76716 Z M409.45301,296.61266 C409.45301,321.01872 391.16689,326.05784 372.7371,326.05784 L346.42935,326.05784 L346.42935,355.52685 L305.44855,355.52685 L279.48667,326.44199 L252.5058,355.52685 L168.9904,355.52685 L168.9904,267.66822 L253.79086,267.66822 L279.73144,296.46694 L306.55002,267.66822 L373.92106,267.66822 C390.6534,267.66822 409.45301,272.28078 409.45301,296.61266 L409.45301,296.61266 Z M241.82781,337.04655 L189.9892,337.04655 L189.9892,319.56596 L236.27785,319.56596 L236.27785,301.64028 L189.9892,301.64028 L189.9892,285.66718 L242.84947,285.66718 L265.91132,311.27077 L241.82781,337.04655 L241.82781,337.04655 Z M325.3545,347.10668 L292.9833,311.3189 L325.3545,276.6677 L325.3545,347.10668 L325.3545,347.10668 Z M373.2272,308.04117 L345.98027,308.04117 L345.98027,285.66718 L373.47197,285.66718 C381.08388,285.66718 386.36777,288.75636 386.36777,296.43956 C386.36777,304.03796 381.32865,308.04117 373.2272,308.04117 L373.2272,308.04117 Z M515.97053,267.66822 L586.34004,267.66822 L586.34004,285.83764 L536.96778,285.83764 L536.96778,301.81074 L585.1348,301.81074 L585.1348,319.73642 L536.96778,319.73642 L536.96778,337.21701 L586.34004,337.29641 L586.34004,355.52678 L515.97053,355.52678 L515.97053,267.66815 L515.97053,267.66822 Z M488.91724,314.6973 C493.61049,316.42205 497.44703,319.51387 499.24559,322.07317 C502.22276,326.36251 502.65378,330.36571 502.73891,338.10985 L502.73891,355.52685 L481.5714,355.52685 L481.5714,344.53458 C481.5714,339.24908 482.08223,331.42282 478.1632,327.33748 C475.08226,324.19002 470.38635,323.4376 462.69463,323.4376 L440.16223,323.4376 L440.16223,355.52685 L418.97609,355.52685 L418.97609,267.66822 L467.65393,267.66822 C478.32816,267.66822 486.10236,268.13716 493.02251,271.81449 C499.6766,275.8177 503.86168,281.30191 503.86168,291.3245 C503.85868,305.34765 494.46719,312.50362 488.91724,314.6973 L488.91724,314.6973 Z M476.99899,303.59022 C474.17879,305.25668 470.69077,305.39975 466.58817,305.39975 L440.97483,305.39975 L440.97483,285.66718 L466.9367,285.66718 C470.69077,285.66718 474.4475,285.74658 476.99899,287.25416 C479.7314,288.67687 481.36499,291.39779 481.36499,295.15725 C481.36499,298.91672 479.7314,301.94496 476.99899,303.59022 L476.99899,303.59022 Z M667.33539,309.1866 C671.44067,313.41766 673.64095,318.7588 673.64095,327.80112 C673.64095,346.70178 661.78278,355.5242 640.51948,355.5242 L599.45353,355.5242 L599.45353,336.68449 L640.35453,336.68449 C644.35337,336.68449 647.18954,336.15726 648.9668,334.50934 C650.41681,333.15021 651.45709,331.17643 651.45709,328.77875 C651.45709,326.21944 650.33167,324.18738 648.88433,322.96866 C647.27201,321.62807 645.04778,321.01872 641.37619,321.01872 C621.65868,320.34843 596.9659,321.62807 596.9659,293.82551 C596.9659,281.08201 605.00615,267.66822 627.11019,267.66822 L669.37872,267.66822 L669.37872,286.36752 L630.70196,286.36752 C626.86809,286.36752 624.37512,286.51059 622.25464,287.9545 C619.94527,289.37721 619.08856,291.48876 619.08856,294.2759 C619.08856,297.59028 621.04941,299.8449 623.702,300.81987 C625.92624,301.59084 628.31543,301.81603 631.9072,301.81603 L643.25722,302.12071 C654.703,302.39889 662.55967,304.37003 667.33539,309.1866 L667.33539,309.1866 Z M751,285.66718 L712.57335,285.66718 C708.7368,285.66718 706.18797,285.81025 704.04088,287.25416 C701.81665,288.67687 700.95995,290.78843 700.95995,293.57558 C700.95995,296.88994 702.83831,299.14456 705.57071,300.11953 C707.79495,300.8905 710.18415,301.1157 713.6961,301.1157 L725.12327,301.42038 C736.65419,301.70387 744.35123,303.67765 749.04448,308.49157 C749.89852,309.16186 750.41202,309.91428 751,310.6667 L751,285.66718 L751,285.66718 Z" id="path13" fill="#FFFFFF" sketch:type="MSShapeGroup"></path>
        </g>
    </g>
</svg>

<svg viewBox="0 0 752 471" xmlns="http://www.w3.org/2000/svg"><g fill="none" fill-rule="evenodd"><rect fill="#2557D6" x="1" width="750" height="471" rx="40"/><path d="M1 221.19h36.03l8.12-19.51h18.18l8.1 19.5h70.89v-14.91l6.32 14.98h36.8l6.33-15.2v15.14h176.15l-.09-32.03h3.41c2.39.08 3.09.3 3.09 4.23v27.8h91.1v-7.46c7.35 3.92 18.78 7.46 33.82 7.46h38.33l8.2-19.51h18.19l8.02 19.5h73.86v-18.53l11.18 18.54h59.2V98.68h-58.58v14.47l-8.2-14.47h-60.11v14.47l-7.53-14.47h-81.2c-13.58 0-25.53 1.89-35.18 7.15v-7.15h-56.02v7.15c-6.14-5.42-14.51-7.15-23.82-7.15H180.91l-13.74 31.64-14.1-31.64H88.6v14.47l-7.08-14.47H26.53L1 156.92v64.27zm227.4-17.68h-21.62l-.08-68.79-30.57 68.8h-18.51l-30.65-68.86v68.85H84.08l-8.1-19.59h-43.9l-8.18 19.6H1l37.76-87.84h31.32l35.86 83.16v-83.16h34.41l27.6 59.58 25.34-59.58h35.1v87.83h.01zM68.78 165.7l-14.43-35.01-14.35 35h28.78zm245.64 37.82h-70.43v-87.83h70.43v18.29h-49.35v15.83h48.17v18h-48.17v17.55h49.35v18.16zm99.26-64.18c0 14-9.4 21.24-14.86 23.42 4.61 1.74 8.55 4.83 10.43 7.4 2.98 4.36 3.49 8.26 3.49 16.1v17.26h-21.27l-.08-11.07c0-5.29.51-12.89-3.33-17.12-3.08-3.08-7.77-3.75-15.36-3.75h-22.64v31.94h-21.08v-87.83h48.5c10.77 0 18.71.28 25.53 4.2 6.67 3.93 10.67 9.66 10.67 19.45zm-26.66 13.05c-2.9 1.75-6.32 1.8-10.43 1.8h-25.61v-19.5h25.96c3.68 0 7.51.16 10 1.58 2.74 1.28 4.43 4 4.43 7.77 0 3.83-1.61 6.92-4.35 8.35zm60.47 51.13h-21.51v-87.83h21.5v87.83zm249.74 0h-29.88l-39.96-65.92v65.92h-42.94l-8.2-19.59h-43.8l-7.97 19.6h-24.67c-10.25 0-23.22-2.26-30.57-9.72-7.41-7.46-11.27-17.56-11.27-33.53 0-13.03 2.3-24.94 11.37-34.35 6.82-7.01 17.49-10.24 32.02-10.24h20.41v18.82H501.8c-7.7 0-12.04 1.14-16.23 5.2-3.59 3.7-6.06 10.7-6.06 19.9 0 9.4 1.88 16.2 5.8 20.63 3.25 3.47 9.14 4.53 14.7 4.53h9.46l29.72-69.08h31.6l35.69 83.08v-83.08h32.1l37.06 61.17v-61.17h21.6v87.83zM569.07 165.7l-14.59-35.01-14.51 35.01h29.1zm181.89 178.07c-5.13 7.46-15.1 11.24-28.62 11.24h-40.71v-18.84h40.55c4.02 0 6.84-.53 8.53-2.18a7.71 7.71 0 002.5-5.73 7.2 7.2 0 00-2.58-5.81c-1.53-1.34-3.76-1.95-7.43-1.95-19.8-.67-44.5.61-44.5-27.2 0-12.74 8.13-26.15 30.26-26.15h42v-17.48h-39.03c-11.77 0-20.33 2.8-26.38 7.17v-7.17h-57.72c-9.23 0-20.06 2.28-25.19 7.17v-7.17H499.58v7.17c-8.2-5.89-22.05-7.17-28.43-7.17h-67.99v7.17c-6.49-6.25-20.92-7.17-29.71-7.17h-76.09l-17.4 18.76-16.31-18.76H149.99v122.6h111.52l17.94-19.07 16.9 19.06 68.74.06v-28.84h6.75c9.12.14 19.88-.22 29.37-4.3v33.08h56.7V340.3h2.73c3.5 0 3.84.14 3.84 3.61v28.34H636.7c10.94 0 22.37-2.8 28.7-7.85v7.85h54.63c11.37 0 22.47-1.6 30.92-5.66v-22.83zm-341.5-47.16c0 24.4-18.3 29.45-36.72 29.45h-26.31v29.47h-40.98l-25.96-29.09-26.98 29.09h-83.52v-87.86h84.8l25.94 28.8 26.82-28.8h67.37c16.73 0 35.53 4.61 35.53 28.94zm-167.63 40.44h-51.84v-17.48h46.29v-17.93h-46.3v-15.97h52.87l23.06 25.6-24.08 25.78zm83.52 10.06l-32.37-35.8 32.37-34.64v70.44zm47.88-39.07h-27.25v-22.37h27.5c7.6 0 12.89 3.09 12.89 10.77 0 7.6-5.04 11.6-13.14 11.6zm142.74-40.37h70.37v18.17h-49.37v15.97h48.16v17.93h-48.16v17.48l49.37.08v18.23h-70.37v-87.86zm-27.05 47.03c4.69 1.72 8.53 4.81 10.33 7.37 2.97 4.3 3.4 8.3 3.49 16.04v17.42h-21.17v-11c0-5.28.51-13.1-3.4-17.2-3.09-3.14-7.78-3.9-15.48-3.9h-22.53v32.1h-21.18v-87.86h48.67c10.68 0 18.45.47 25.37 4.14 6.66 4 10.84 9.5 10.84 19.51 0 14.03-9.4 21.18-14.94 23.38zM477 303.59c-2.82 1.67-6.3 1.81-10.41 1.81h-25.62v-19.73h25.97c3.75 0 7.5.08 10.06 1.58 2.73 1.43 4.36 4.15 4.36 7.9 0 3.77-1.63 6.8-4.36 8.44zm190.34 5.6c4.1 4.23 6.3 9.57 6.3 18.61 0 18.9-11.86 27.72-33.12 27.72h-41.07v-18.84h40.9c4 0 6.84-.52 8.62-2.17a7.78 7.78 0 002.49-5.73 7.5 7.5 0 00-2.58-5.81c-1.6-1.34-3.83-1.95-7.5-1.95-19.72-.67-44.41.6-44.41-27.2 0-12.74 8.04-26.15 30.14-26.15h42.27v18.7H630.7c-3.83 0-6.32.14-8.45 1.58-2.3 1.43-3.16 3.54-3.16 6.33a6.73 6.73 0 004.61 6.54c2.23.77 4.62 1 8.2 1l11.36.3c11.44.28 19.3 2.25 24.08 7.07zM751 285.67h-38.43c-3.83 0-6.38.14-8.53 1.58-2.22 1.43-3.08 3.54-3.08 6.33a6.63 6.63 0 004.61 6.54c2.22.77 4.61 1 8.13 1l11.42.3c11.53.28 19.23 2.26 23.92 7.07.86.67 1.37 1.42 1.96 2.18v-25z" fill="#FFF"/></g></svg>
